contents/images/twitter.svg

<svg height="20" viewBox="0 0 20 20" width="20" xmlns="http://www.w3.org/2000/svg"><g fill="none" fill-rule="evenodd"><circle cx="10" cy="10" fill="#0747a6" opacity=".8" r="10"/><path d="m14.601087 8.27282609c.0043478.08804348.0059782.17717391.0059782.26521739 0 2.71195652-2.0635869 5.83804352-5.8369565 5.83804352-1.15923913 0-2.23695653-.339674-3.1451087-.9222827.16086957.0190218.32391304.0288044.48913043.0288044.96195653 0 1.84619566-.3282609 2.54782609-.8777174-.89728261-.0168478-1.65543478-.6092391-1.91630435-1.4244565.125.0233695.25380435.0358695.38586957.0358695.1875 0 .36902174-.0244565.54076087-.0711956-.93858696-.1891304-1.64565218-1.0179348-1.64565218-2.0125 0-.00869566 0-.01684783 0-.02554348.27663044.15380435.59347827.24619565.92934783.25706521-.55054348-.36847826-.91304348-.99565217-.91304348-1.70815217 0-.37554348.10108696-.72826087.27826087-1.03152174 1.01141305 1.24184783 2.52391305 2.05815218 4.22880435 2.14402174-.0347826-.15054348-.0527174-.30652174-.0527174-.46793478 0-1.1326087.9179348-2.05054348 2.051087-2.05054348.5902174 0 1.1233695.24836957 1.4978261.64728261.4668478-.09239131.9059782-.26304348 1.3027173-.49782609-.1532608.47880435-.4788043.88097826-.9021739 1.13478261.4152174-.05.8097826-.15923913 1.1782609-.32282609-.275.41195653-.6228261.77282609-1.023913 1.06141305z" fill="#fff" fill-rule="nonzero"/></g></svg>

<?xml version="1.0" encoding="UTF-8"?>
<svg width="20px" height="20px" viewBox="0 0 20 20" version="1.1" xmlns="http://www.w3.org/2000/svg" xmlns:xlink="http://www.w3.org/1999/xlink">
    <!-- Generator: Sketch 48.2 (47327) - http://www.bohemiancoding.com/sketch -->
    <title>social/twitter</title>
    <desc>Created with Sketch.</desc>
    <defs></defs>
    <g id="Symbols" stroke="none" stroke-width="1" fill="none" fill-rule="evenodd">
        <g id="social/twitter">
            <g id="Group-5">
                <circle id="Oval-2" fill="#0747A6" opacity="0.800000012" cx="10" cy="10" r="10"></circle>
                <path d="M14.601087,8.27282609 C14.6054348,8.36086957 14.6070652,8.45 14.6070652,8.53804348 C14.6070652,11.25 12.5434783,14.376087 8.7701087,14.376087 C7.61086957,14.376087 6.53315217,14.036413 5.625,13.4538043 C5.78586957,13.4728261 5.94891304,13.4826087 6.11413043,13.4826087 C7.07608696,13.4826087 7.96032609,13.1543478 8.66195652,12.6048913 C7.76467391,12.5880435 7.00652174,11.9956522 6.74565217,11.1804348 C6.87065217,11.2038043 6.99945652,11.2163043 7.13152174,11.2163043 C7.31902174,11.2163043 7.50054348,11.1918478 7.67228261,11.1451087 C6.73369565,10.9559783 6.02663043,10.1271739 6.02663043,9.1326087 C6.02663043,9.12391304 6.02663043,9.11576087 6.02663043,9.10706522 C6.30326087,9.26086957 6.6201087,9.35326087 6.95597826,9.36413043 C6.40543478,8.99565217 6.04293478,8.36847826 6.04293478,7.65597826 C6.04293478,7.28043478 6.14402174,6.92771739 6.32119565,6.62445652 C7.3326087,7.86630435 8.8451087,8.6826087 10.55,8.76847826 C10.5152174,8.61793478 10.4972826,8.46195652 10.4972826,8.30054348 C10.4972826,7.16793478 11.4152174,6.25 12.5483696,6.25 C13.138587,6.25 13.6717391,6.49836957 14.0461957,6.89728261 C14.5130435,6.8048913 14.9521739,6.63423913 15.348913,6.39945652 C15.1956522,6.87826087 14.8701087,7.28043478 14.4467391,7.53423913 C14.8619565,7.48423913 15.2565217,7.375 15.625,7.21141304 C15.35,7.62336957 15.0021739,7.98423913 14.601087,8.27282609 Z" id="Shape" fill="#FFFFFF" fill-rule="nonzero"></path>
            </g>
        </g>
    </g>
</svg>
